lib/svgs/calendar.svg

<svg xmlns="http://www.w3.org/2000/svg" viewBox="0 0 20 20">
    <path fill="#000" fill-rule="evenodd" d="M15.588 3.412h-1.44V2.6a.6.6 0 1 0-1.2 0v.812H7.64V2.6a.6.6 0 1 0-1.2 0v.812H5c-1.1 0-2 .9-2 2V16c0 1.1.9 2 2 2h10.588c1.1 0 2-.9 2-2V5.412c0-1.1-.9-2-2-2m0 13.388H5a.81.81 0 0 1-.8-.8V8.282h12.188V16a.81.81 0 0 1-.8.8M5 4.612h1.44v.426a.6.6 0 0 0 1.2 0v-.426h5.308v.426a.6.6 0 1 0 1.2 0v-.426h1.44c.434 0 .8.366.8.8v1.67H4.2v-1.67c0-.434.366-.8.8-.8"/>
</svg>

<svg xmlns="http://www.w3.org/2000/svg" viewBox="0 0 20 20">
    <path fill="#000" fill-rule="evenodd" d="M15.588,3.412 L14.148,3.412 L14.148,2.6 C14.148,2.269 13.88,2 13.548,2 C13.216,2 12.948,2.269 12.948,2.6 L12.948,3.412 L7.64,3.412 L7.64,2.6 C7.64,2.269 7.372,2 7.04,2 C6.709,2 6.44,2.269 6.44,2.6 L6.44,3.412 L5,3.412 C3.9,3.412 3,4.312 3,5.412 L3,16 C3,17.1 3.9,18 5,18 L15.588,18 C16.688,18 17.588,17.1 17.588,16 L17.588,5.412 C17.588,4.312 16.688,3.412 15.588,3.412 L15.588,3.412 L15.588,3.412 L15.588,3.412 Z M15.588,16.8 L5,16.8 C4.566,16.8 4.2,16.434 4.2,16 L4.2,8.282 L16.388,8.282 L16.388,16 C16.388,16.434 16.022,16.8 15.588,16.8 L15.588,16.8 L15.588,16.8 L15.588,16.8 Z M5,4.612 L6.44,4.612 L6.44,5.038 C6.44,5.369 6.709,5.638 7.04,5.638 C7.372,5.638 7.64,5.369 7.64,5.038 L7.64,4.612 L12.948,4.612 L12.948,5.038 C12.948,5.369 13.216,5.638 13.548,5.638 C13.88,5.638 14.148,5.369 14.148,5.038 L14.148,4.612 L15.588,4.612 C16.022,4.612 16.388,4.978 16.388,5.412 L16.388,7.082 L4.2,7.082 L4.2,5.412 C4.2,4.978 4.566,4.612 5,4.612 L5,4.612 L5,4.612 L5,4.612 Z"/>
</svg>
